;FLAVOR:Marlin
;TIME:17687
;Filament used: 29.2092m
;Layer height: 0.32
;MINX:48.812
;MINY:82.812
;MINZ:0.25
;MAXX:186.188
;MAXY:152.188
;MAXZ:79.93
;Generated with Cura_SteamEngine 4.8.0
M140 S60
M105
M190 S60
M104 S200
M105
M109 S200
M82 ;absolute extrusion mode
G28 ;home
G92 E0 ;Reset Extruder
G1 Z4.0 F3000 ;Move Z Axis up
G92 E0 ;Reset Extruder
G1 X1.1 Y20 Z0.28 F5000.0 ;Move to start position
G1 X1.1 Y80.0 Z0.28 F1500.0 E10 ;Draw the first line
G1 X1.4 Y80.0 Z0.28 F5000.0 ;Move to side a little
G1 X1.4 Y20 Z0.28 F1500.0 E20 ;Draw the second line
G92 E0 ;Reset Extruder
G1 Z2.0 F3000 ;Move Z Axis up
G92 E0
G92 E0
G1 F1200 E-2.5
;LAYER_COUNT:250
;LAYER:0
M107
G0 F2100 X51.148 Y83.445 Z0.25
;TYPE:SKIRT
G1 F1200 E0
G1 F1800 X51.696 Y83.173 E0.03974
G1 X52.276 Y82.975 E0.07956
G1 X52.876 Y82.854 E0.11932
G1 X53.5 Y82.812 E0.15994
G1 X181.5 Y82.812 E8.47498
G1 X182.111 Y82.852 E8.51475
G1 X182.711 Y82.971 E8.55449
G1 X183.291 Y83.168 E8.59428
G1 X183.84 Y83.438 E8.63402
G1 X184.349 Y83.777 E8.67375
G1 X184.81 Y84.18 E8.71353
G1 X185.214 Y84.64 E8.7533
G1 X185.555 Y85.148 E8.79305
G1 X185.827 Y85.696 E8.83279
G1 X186.025 Y86.276 E8.8726
G1 X186.146 Y86.876 E8.91236
G1 X186.188 Y87.5 E8.95299
G1 X186.188 Y97.5 E9.6026
G1 X186.148 Y98.111 E9.64238
G1 X186.029 Y98.711 E9.68211
G1 X185.832 Y99.291 E9.72191
G1 X185.562 Y99.84 E9.76165
G1 X185.223 Y100.349 E9.80138
G1 X184.82 Y100.81 E9.84115
G1 X184.36 Y101.214 E9.88092
G1 X183.852 Y101.555 E9.92067
G1 X183.304 Y101.827 E9.96041
G1 X182.724 Y102.025 E10.00022
G1 X182.124 Y102.146 E10.03999
G1 X181.5 Y102.188 E10.08061
G1 X141.188 Y102.188 E12.69933
G1 X141.188 Y147.5 E15.64285
G1 X141.148 Y148.111 E15.68263
G1 X141.029 Y148.711 E15.72236
G1 X140.832 Y149.291 E15.76215
G1 X140.562 Y149.84 E15.8019
G1 X140.223 Y150.349 E15.84163
G1 X139.82 Y150.81 E15.8814
G1 X139.36 Y151.214 E15.92117
G1 X138.852 Y151.555 E15.96092
G1 X138.304 Y151.827 E16.00066
G1 X137.724 Y152.025 E16.04047
G1 X137.124 Y152.146 E16.08024
G1 X136.5 Y152.188 E16.12086
G1 X126.5 Y152.188 E16.77047
G1 X125.889 Y152.148 E16.81025
G1 X125.289 Y152.029 E16.84999
G1 X124.709 Y151.832 E16.88978
G1 X124.16 Y151.562 E16.92952
G1 X123.651 Y151.223 E16.96925
G1 X123.19 Y150.82 E17.00903
G1 X122.786 Y150.36 E17.0488
G1 X122.445 Y149.852 E17.08854
G1 X122.173 Y149.304 E17.12829
G1 X121.975 Y148.724 E17.1681
G1 X121.854 Y148.124 E17.20786
G1 X121.812 Y147.5 E17.24849
G1 X121.812 Y102.188 E20.19201
G1 X113.188 Y102.188 E20.75223
G1 X113.188 Y147.5 E23.69576
G1 X113.148 Y148.111 E23.73553
G1 X113.029 Y148.711 E23.77527
G1 X112.832 Y149.291 E23.81506
G1 X112.562 Y149.84 E23.8548
G1 X112.223 Y150.349 E23.89453
G1 X111.82 Y150.81 E23.93431
G1 X111.36 Y151.214 E23.97408
G1 X110.852 Y151.555 E24.01382
G1 X110.304 Y151.827 E24.05357
G1 X109.724 Y152.025 E24.09338
G1 X109.124 Y152.146 E24.13314
G1 X108.5 Y152.188 E24.17377
G1 X98.5 Y152.188 E24.82338
G1 X97.889 Y152.148 E24.86316
G1 X97.289 Y152.029 E24.90289
G1 X96.709 Y151.832 E24.94268
G1 X96.16 Y151.562 E24.98243
G1 X95.651 Y151.223 E25.02215
G1 X95.19 Y150.82 E25.06193
G1 X94.786 Y150.36 E25.1017
G1 X94.445 Y149.852 E25.14145
G1 X94.173 Y149.304 E25.18119
G1 X93.975 Y148.724 E25.221
G1 X93.854 Y148.124 E25.26076
G1 X93.812 Y147.5 E25.30139
G1 X93.812 Y102.188 E28.24491
G1 X53.5 Y102.188 E30.86363
G1 X52.889 Y102.148 E30.90341
G1 X52.289 Y102.029 E30.94314
G1 X51.709 Y101.832 E30.98293
G1 X51.16 Y101.562 E31.02268
G1 X50.651 Y101.223 E31.0624
G1 X50.19 Y100.82 E31.10218
G1 X49.786 Y100.36 E31.14195
G1 X49.445 Y99.852 E31.1817
G1 X49.173 Y99.304 E31.22144
G1 X48.975 Y98.724 E31.26125
G1 X48.854 Y98.124 E31.30101
G1 X48.812 Y97.5 E31.34164
G1 X48.812 Y87.5 E31.99125
G1 X48.852 Y86.889 E32.03103
G1 X48.971 Y86.289 E32.07077
G1 X49.168 Y85.709 E32.11056
G1 X49.438 Y85.16 E32.1503
G1 X49.777 Y84.651 E32.19003
G1 X50.18 Y84.19 E32.2298
G1 X50.64 Y83.786 E32.26957
G1 X51.148 Y83.445 E32.30932
G0 F2100 X51.245 Y84.12
G1 F1800 X51.74 Y83.838 E32.34633
G1 X52.27 Y83.628 E32.38336
G1 X52.823 Y83.494 E32.42033
G1 X53.5 Y83.437 E32.46446
G1 X181.5 Y83.437 E40.77949
G1 X182.068 Y83.477 E40.81648
G1 X182.626 Y83.596 E40.85355
G1 X183.161 Y83.792 E40.89056
G1 X183.663 Y84.061 E40.92756
G1 X184.123 Y84.397 E40.96456
G1 X184.531 Y84.794 E41.00154
G1 X184.88 Y85.245 E41.03859
G1 X185.162 Y85.74 E41.0756
G1 X185.372 Y86.27 E41.11263
G1 X185.506 Y86.823 E41.14959
G1 X185.563 Y87.5 E41.19373
G1 X185.563 Y97.5 E41.84334
G1 X185.523 Y98.068 E41.88033
G1 X185.404 Y98.626 E41.91739
G1 X185.208 Y99.161 E41.9544
G1 X184.939 Y99.663 E41.9914
G1 X184.603 Y100.123 E42.02841
G1 X184.206 Y100.531 E42.06539
G1 X183.755 Y100.88 E42.10243
G1 X183.26 Y101.162 E42.13944
G1 X182.73 Y101.372 E42.17647
G1 X182.177 Y101.506 E42.21344
G1 X181.5 Y101.563 E42.25757
G1 X140.563 Y101.563 E44.91689
G1 X140.563 Y147.5 E47.90101
G1 X140.523 Y148.068 E47.938
G1 X140.404 Y148.626 E47.97506
G1 X140.208 Y149.161 E48.01208
G1 X139.939 Y149.663 E48.04907
G1 X139.603 Y150.123 E48.08608
G1 X139.206 Y150.531 E48.12306
G1 X138.755 Y150.88 E48.1601
G1 X138.26 Y151.162 E48.19711
G1 X137.73 Y151.372 E48.23415
G1 X137.177 Y151.506 E48.27111
G1 X136.5 Y151.563 E48.31524
G1 X126.5 Y151.563 E48.96486
G1 X125.932 Y151.523 E49.00184
G1 X125.374 Y151.404 E49.03891
G1 X124.839 Y151.208 E49.07592
G1 X124.337 Y150.939 E49.11292
G1 X123.877 Y150.603 E49.14992
G1 X123.469 Y150.206 E49.1869
G1 X123.12 Y149.755 E49.22395
G1 X122.838 Y149.26 E49.26096
G1 X122.628 Y148.73 E49.29799
G1 X122.494 Y148.177 E49.33495
G1 X122.437 Y147.5 E49.37909
G1 X122.437 Y101.563 E52.36321
G1 X112.563 Y101.563 E53.00464
G1 X112.563 Y147.5 E55.98876
G1 X112.523 Y148.068 E56.02575
G1 X112.404 Y148.626 E56.06281
G1 X112.208 Y149.161 E56.09983
G1 X111.939 Y149.663 E56.13682
G1 X111.603 Y150.123 E56.17383
G1 X111.206 Y150.531 E56.21081
G1 X110.755 Y150.88 E56.24785
G1 X110.26 Y151.162 E56.28486
G1 X109.73 Y151.372 E56.3219
G1 X109.177 Y151.506 E56.35886
G1 X108.5 Y151.563 E56.40299
G1 X98.5 Y151.563 E57.05261
G1 X97.932 Y151.523 E57.0896
G1 X97.374 Y151.404 E57.12666
G1 X96.839 Y151.208 E57.16367
G1 X96.337 Y150.939 E57.20067
G1 X95.877 Y150.603 E57.23767
G1 X95.469 Y150.206 E57.27465
G1 X95.12 Y149.755 E57.3117
G1 X94.838 Y149.26 E57.34871
G1 X94.628 Y148.73 E57.38574
G1 X94.494 Y148.177 E57.4227
G1 X94.437 Y147.5 E57.46684
G1 X94.437 Y101.563 E60.45096
G1 X53.5 Y101.563 E63.11028
G1 X52.932 Y101.523 E63.14727
G1 X52.374 Y101.404 E63.18433
G1 X51.839 Y101.208 E63.22134
G1 X51.337 Y100.939 E63.25834
G1 X50.877 Y100.603 E63.29535
G1 X50.469 Y100.206 E63.33233
G1 X50.12 Y99.755 E63.36937
G1 X49.838 Y99.26 E63.40638
G1 X49.628 Y98.73 E63.44341
G1 X49.494 Y98.177 E63.48038
G1 X49.437 Y97.5 E63.52451
G1 X49.437 Y87.5 E64.17412
G1 X49.477 Y86.932 E64.21111
G1 X49.596 Y86.374 E64.24818
G1 X49.792 Y85.839 E64.28519
G1 X50.061 Y85.337 E64.32219
G1 X50.397 Y84.877 E64.35919
G1 X50.794 Y84.469 E64.39617
G1 X51.245 Y84.12 E64.43322
G0 F2100 X51.843 Y84.487
G1 F1800 X52.321 Y84.271 E64.46729
G1 X52.825 Y84.129 E64.50131
G1 X53.5 Y84.062 E64.54537
G1 X181.5 Y84.062 E72.8604
G1 X182.023 Y84.102 E72.89448
G1 X182.533 Y84.221 E72.9285
G1 X183.019 Y84.416 E72.96252
G1 X183.47 Y84.683 E72.99656
G1 X183.876 Y85.015 E73.03063
G1 X184.226 Y85.405 E73.06467
G1 X184.513 Y85.843 E73.09869
G1 X184.729 Y86.321 E73.13277
G1 X184.871 Y86.825 E73.16678
G1 X184.938 Y87.5 E73.21085
G1 X184.938 Y97.5 E73.86046
G1 X184.898 Y98.023 E73.89453
G1 X184.779 Y98.533 E73.92855
G1 X184.584 Y99.019 E73.96257
G1 X184.317 Y99.47 E73.99662
G1 X183.985 Y99.876 E74.03069
G1 X183.595 Y100.226 E74.06473
G1 X183.157 Y100.513 E74.09874
G1 X182.679 Y100.729 E74.13282
G1 X182.175 Y100.871 E74.16683
G1 X181.5 Y100.938 E74.2109
G1 X139.938 Y100.938 E76.91082
G1 X139.938 Y147.5 E79.93554
G1 X139.898 Y148.023 E79.96961
G1 X139.779 Y148.533 E80.00363
G1 X139.584 Y149.019 E80.03765
G1 X139.317 Y149.47 E80.0717
G1 X138.985 Y149.876 E80.10577
G1 X138.595 Y150.226 E80.13981
G1 X138.157 Y150.513 E80.17383
G1 X137.679 Y150.729 E80.2079
G1 X137.175 Y150.871 E80.24191
G1 X136.5 Y150.938 E80.28598
G1 X126.5 Y150.938 E80.93559
G1 X125.977 Y150.898 E80.96967
G1 X125.467 Y150.779 E81.00369
G1 X124.981 Y150.584 E81.0377
G1 X124.53 Y150.317 E81.07175
G1 X124.124 Y149.985 E81.10582
G1 X123.774 Y149.595 E81.13986
G1 X123.487 Y149.157 E81.17388
G1 X123.271 Y148.679 E81.20795
G1 X123.129 Y148.175 E81.24197
G1 X123.062 Y147.5 E81.28603
G1 X123.062 Y100.938 E84.31076
G1 X111.938 Y100.938 E85.03338
G1 X111.938 Y147.5 E88.05811
G1 X111.898 Y148.023 E88.09218
G1 X111.779 Y148.533 E88.1262
G1 X111.584 Y149.019 E88.16022
G1 X111.317 Y149.47 E88.19427
G1 X110.985 Y149.876 E88.22834
G1 X110.595 Y150.226 E88.26238
G1 X110.157 Y150.513 E88.29639
G1 X109.679 Y150.729 E88.33047
G1 X109.175 Y150.871 E88.36448
G1 X108.5 Y150.938 E88.40855
G1 X98.5 Y150.938 E89.05816
G1 X97.977 Y150.898 E89.09223
G1 X97.467 Y150.779 E89.12625
G1 X96.981 Y150.584 E89.16027
G1 X96.53 Y150.317 E89.19432
G1 X96.124 Y149.985 E89.22839
G1 X95.774 Y149.595 E89.26243
G1 X95.487 Y149.157 E89.29645
G1 X95.271 Y148.679 E89.33052
G1 X95.129 Y148.175 E89.36454
G1 X95.062 Y147.5 E89.4086
G1 X95.062 Y100.938 E92.43332
G1 X53.5 Y100.938 E95.13324
G1 X52.977 Y100.898 E95.16731
G1 X52.467 Y100.779 E95.20133
G1 X51.981 Y100.584 E95.23535
G1 X51.53 Y100.317 E95.2694
G1 X51.124 Y99.985 E95.30347
G1 X50.774 Y99.595 E95.33751
G1 X50.487 Y99.157 E95.37153
G1 X50.271 Y98.679 E95.4056
G1 X50.129 Y98.175 E95.43962
G1 X50.062 Y97.5 E95.48368
G1 X50.062 Y87.5 E96.13329
G1 X50.102 Y86.977 E96.16737
G1 X50.221 Y86.467 E96.20139
G1 X50.416 Y85.981 E96.23541
G1 X50.683 Y85.53 E96.26945
G1 X51.015 Y85.124 E96.30352
G1 X51.405 Y84.774 E96.33756
G1 X51.843 Y84.487 E96.37158
G0 F2100 X52.009 Y85.115
G1 F1800 X52.431 Y84.898 E96.40241
G1 X52.883 Y84.756 E96.43318
G1 X53.5 Y84.687 E96.47351
G1 X181.5 Y84.687 E104.78855
G1 X181.972 Y84.727 E104.81932
G1 X182.431 Y84.846 E104.85012
G1 X182.864 Y85.04 E104.88094
G1 X183.257 Y85.303 E104.91166
G1 X183.601 Y85.63 E104.9425
G1 X183.885 Y86.009 E104.97326
G1 X184.102 Y86.431 E105.00409
G1 X184.244 Y86.883 E105.03486
G1 X184.313 Y87.5 E105.07519
G1 X184.313 Y97.5 E105.72481
G1 X184.273 Y97.972 E105.75558
G1 X184.154 Y98.431 E105.78638
G1 X183.96 Y98.864 E105.8172
G1 X183.697 Y99.257 E105.84792
G1 X183.37 Y99.601 E105.87875
G1 X182.991 Y99.885 E105.90952
G1 X182.569 Y100.102 E105.94035
G1 X182.117 Y100.244 E105.97112
G1 X181.5 Y100.313 E106.01145
G1 X139.313 Y100.313 E108.75197
G1 X139.313 Y147.5 E111.8173
G1 X139.273 Y147.972 E111.84807
G1 X139.154 Y148.431 E111.87887
G1 X138.96 Y148.864 E111.90969
G1 X138.697 Y149.257 E111.94041
G1 X138.37 Y149.601 E111.97124
G1 X137.991 Y149.885 E112.00201
G1 X137.569 Y150.102 E112.03284
G1 X137.117 Y150.244 E112.06361
G1 X136.5 Y150.313 E112.10394
G1 X126.5 Y150.313 E112.75356
G1 X126.028 Y150.273 E112.78433
G1 X125.569 Y150.154 E112.81513
G1 X125.136 Y149.96 E112.84595
G1 X124.743 Y149.697 E112.87667
G1 X124.399 Y149.37 E112.9075
G1 X124.115 Y148.991 E112.93827
G1 X123.898 Y148.569 E112.9691
G1 X123.756 Y148.117 E112.99987
G1 X123.687 Y147.5 E113.0402
G1 X123.687 Y100.313 E116.10553
G1 X111.313 Y100.313 E116.90936
G1 X111.313 Y147.5 E119.97468
G1 X111.273 Y147.972 E120.00545
G1 X111.154 Y148.431 E120.03626
G1 X110.96 Y148.864 E120.06708
G1 X110.697 Y149.257 E120.0978
G1 X110.37 Y149.601 E120.12863
G1 X109.991 Y149.885 E120.1594
G1 X109.569 Y150.102 E120.19022
G1 X109.117 Y150.244 E120.221
G1 X108.5 Y150.313 E120.26133
G1 X98.5 Y150.313 E120.91094
G1 X98.028 Y150.273 E120.94171
G1 X97.569 Y150.154 E120.97252
G1 X97.136 Y149.96 E121.00334
G1 X96.743 Y149.697 E121.03406
G1 X96.399 Y149.37 E121.06489
G1 X96.115 Y148.991 E121.09565
G1 X95.898 Y148.569 E121.12648
G1 X95.756 Y148.117 E121.15726
G1 X95.687 Y147.5 E121.19759
G1 X95.687 Y100.313 E124.26291
G1 X53.5 Y100.313 E127.00343
G1 X53.028 Y100.273 E127.0342
G1 X52.569 Y100.154 E127.06501
G1 X52.136 Y99.96 E127.09583
G1 X51.743 Y99.697 E127.12655
G1 X51.399 Y99.37 E127.15738
G1 X51.115 Y98.991 E127.18814
G1 X50.898 Y98.569 E127.21897
G1 X50.756 Y98.117 E127.24975
G1 X50.687 Y97.5 E127.29008
G1 X50.687 Y87.5 E127.93969
G1 X50.727 Y87.028 E127.97046
G1 X50.846 Y86.569 E128.00127
G1 X51.04 Y86.136 E128.03209
G1 X51.303 Y85.743 E128.06281
G1 X51.63 Y85.399 E128.09364
G1 X52.009 Y85.115 E128.1244
G0 F2100 X52.239 Y85.712
G1 F1800 X52.602 Y85.505 E128.15155
G1 X52.997 Y85.371 E128.17865
G1 X53.5 Y85.312 E128.21155
G1 X181.5 Y85.312 E136.52658
G1 X181.916 Y85.352 E136.55373
G1 X182.317 Y85.47 E136.58088
G1 X182.688 Y85.662 E136.60802
G1 X183.016 Y85.922 E136.63521
G1 X183.288 Y86.239 E136.66234
G1 X183.495 Y86.602 E136.68949
G1 X183.629 Y86.997 E136.71658
G1 X183.688 Y87.5 E136.74948
G1 X183.688 Y97.5 E137.39909
G1 X183.648 Y97.916 E137.42624
G1 X183.53 Y98.317 E137.4534
G1 X183.338 Y98.688 E137.48053
G1 X183.078 Y99.016 E137.50772
G1 X182.761 Y99.288 E137.53486
G1 X182.398 Y99.495 E137.562
G1 X182.003 Y99.629 E137.5891
G1 X181.5 Y99.688 E137.622
G1 X138.688 Y99.688 E140.40312
G1 X138.688 Y147.5 E143.50904
G1 X138.648 Y147.916 E143.53619
G1 X138.53 Y148.317 E143.56335
G1 X138.338 Y148.688 E143.59048
G1 X138.078 Y149.016 E143.61767
G1 X137.761 Y149.288 E143.64481
G1 X137.398 Y149.495 E143.67195
G1 X137.003 Y149.629 E143.69905
G1 X136.5 Y149.688 E143.73195
G1 X126.5 Y149.688 E144.38156
G1 X126.084 Y149.648 E144.40871
G1 X125.683 Y149.53 E144.43586
G1 X125.312 Y149.338 E144.463
G1 X124.984 Y149.078 E144.49019
G1 X124.712 Y148.761 E144.51732
G1 X124.505 Y148.398 E144.54447
G1 X124.371 Y148.003 E144.57156
G1 X124.312 Y147.5 E144.60446
G1 X124.312 Y99.688 E147.71039
G1 X110.688 Y99.688 E148.59542
G1 X110.688 Y147.5 E151.70134
G1 X110.648 Y147.916 E151.72849
G1 X110.53 Y148.317 E151.75565
G1 X110.338 Y148.688 E151.78278
G1 X110.078 Y149.016 E151.80997
G1 X109.761 Y149.288 E151.83711
G1 X109.398 Y149.495 E151.86425
G1 X109.003 Y149.629 E151.89135
G1 X108.5 Y149.688 E151.92425
G1 X98.5 Y149.688 E152.57386
G1 X98.084 Y149.648 E152.60101
G1 X97.683 Y149.53 E152.62816
G1 X97.312 Y149.338 E152.6553
G1 X96.984 Y149.078 E152.68249
G1 X96.712 Y148.761 E152.70962
G1 X96.505 Y148.398 E152.73677
G1 X96.371 Y148.003 E152.76386
G1 X96.312 Y147.5 E152.79676
G1 X96.312 Y99.688 E155.90269
G1 X53.5 Y99.688 E158.68381
G1 X53.084 Y99.648 E158.71096
G1 X52.683 Y99.53 E158.73811
G1 X52.312 Y99.338 E158.76525
G1 X51.984 Y99.078 E158.79244
G1 X51.712 Y98.761 E158.81957
G1 X51.505 Y98.398 E158.84672
G1 X51.371 Y98.003 E158.87381
G1 X51.312 Y97.5 E158.90671
G1 X51.312 Y87.5 E159.55632
G1 X51.352 Y87.084 E159.58347
G1 X51.47 Y86.683 E159.61063
G1 X51.662 Y86.312 E159.63776
G1 X51.922 Y85.984 E159.66495
G1 X52.239 Y85.712 E159.69209
G0 F2100 X52.836 Y86.085
G1 F1800 X53.17 Y85.972 E159.71499
G1 X53.5 Y85.937 E159.73655
G1 X181.5 Y85.937 E168.05158
G1 X181.851 Y85.977 E168.07453
G1 X182.184 Y86.094 E168.09746
G1 X182.482 Y86.284 E168.12042
G1 X182.73 Y86.535 E168.14334
G1 X182.915 Y86.836 E168.16629
G1 X183.028 Y87.17 E168.1892
G1 X183.063 Y87.5 E168.21075
G1 X183.063 Y97.5 E168.86037
G1 X183.023 Y97.851 E168.88332
G1 X182.906 Y98.184 E168.90624
G1 X182.716 Y98.482 E168.9292
G1 X182.465 Y98.73 E168.95212
G1 X182.164 Y98.915 E168.97508
G1 X181.83 Y99.028 E168.99798
G1 X181.5 Y99.063 E169.01954
G1 X138.063 Y99.063 E171.84126
G1 X138.063 Y147.5 E174.98778
G1 X138.023 Y147.851 E175.01073
G1 X137.906 Y148.184 E175.03366
G1 X137.716 Y148.482 E175.05662
G1 X137.465 Y148.73 E175.07954
G1 X137.164 Y148.915 E175.10249
G1 X136.83 Y149.028 E175.1254
G1 X136.5 Y149.063 E175.14695
G1 X126.5 Y149.063 E175.79657
G1 X126.149 Y149.023 E175.81952
G1 X125.816 Y148.906 E175.84244
G1 X125.518 Y148.716 E175.8654
G1 X125.27 Y148.465 E175.88832
G1 X125.085 Y148.164 E175.91128
G1 X124.972 Y147.83 E175.93418
G1 X124.937 Y147.5 E175.95574
G1 X124.937 Y99.063 E179.10226
G1 X110.063 Y99.063 E180.0685
G1 X110.063 Y147.5 E183.21502
G1 X110.023 Y147.851 E183.23797
G1 X109.906 Y148.184 E183.2609
G1 X109.716 Y148.482 E183.28386
G1 X109.465 Y148.73 E183.30678
G1 X109.164 Y148.915 E183.32973
G1 X108.83 Y149.028 E183.35264
G1 X108.5 Y149.063 E183.37419
